src/assets/selectIcons/cibo_1.svg

<svg xmlns="http://www.w3.org/2000/svg" viewBox="0 0 512 512" style="height: 512px; width: 512px;"><path d="M0 0h512v512H0z" fill="#000" fill-opacity="1"></path><g class="" transform="translate(0,0)" style=""><path d="M255.563 19.75c-13.31 57.822-16.625 100.686-13.907 156.938l18.813.03c3.31-49.616 18.56-88.618 45.874-133-4.86-9.134-13.465-14.956-23.813-18.78-8.908-3.293-18.82-4.77-26.967-5.188zm98.75 94.156c-9.067.133-18.416 1.204-28 3.313-13.76 3.026-27.176 7.952-39.97 14.56-3.905 14.615-6.346 29.844-7.406 46.595 1.25-.216 2.51-.432 3.75-.688 24.965-5.135 43.288-17.244 52.344-32.25-.298 19.943-25.12 41.175-56.81 49.97-2.525.7-5.086 1.34-7.69 1.874-44.29 9.114-85.27-8.315-99.842-35.343-4.366-8.097-5.176-16.436-3.094-24.343 9.834 17.98 30.633 31.534 55.25 38.156-.748-16.246-.974-31.515-.625-46.406-11.004-4.878-22.38-8.548-33.97-10.875-11.18-2.246-22.044-3.414-32.094-3.064-71.757 2.496-132.96 64.885-131.78 154.688C25.73 373.264 101.85 472.424 190 490.124c11.178 2.246 24.934 3.42 37.22 2.282 12.283-1.138 22.775-4.762 28.405-10.156l5.97-5.72 6.405 5.25c5.378 4.426 16.542 8.05 29.125 9.22 12.583 1.17 26.514.195 37.344-2.188 87.533-19.257 153.047-119.08 151.686-222.718-.677-51.615-19.354-93.606-48.22-120.22-21.647-19.96-48.954-31.508-79.748-31.968-1.284-.02-2.58-.02-3.875 0zm49.906 41.125c53.69 32.478 75.357 115.23 37.092 200.626-30.48 68.017-93.18 121.256-140.843 118.75C411.304 407.96 458.192 271.063 404.22 155.03z" fill="#fff" fill-opacity="1"></path></g></svg>

<?xml version="1.0" encoding="UTF-8" standalone="no"?>
<!DOCTYPE svg PUBLIC "-//W3C//DTD SVG 1.1//EN" "http://www.w3.org/Graphics/SVG/1.1/DTD/svg11.dtd">
<svg width="100%" height="100%" viewBox="0 0 512 512" version="1.1" xmlns="http://www.w3.org/2000/svg" xmlns:xlink="http://www.w3.org/1999/xlink" xml:space="preserve" xmlns:serif="http://www.serif.com/" style="fill-rule:evenodd;clip-rule:evenodd;stroke-linejoin:round;stroke-miterlimit:2;">
    <rect x="0" y="0" width="512" height="512" style="fill-rule:nonzero;"/>
    <g>
        <path d="M354.313,113.906C345.246,114.039 335.897,115.11 326.313,117.219C312.553,120.245 299.137,125.171 286.343,131.779C282.438,146.394 279.997,161.623 278.937,178.374C280.187,178.158 281.447,177.942 282.687,177.686C307.652,172.551 325.975,160.442 335.031,145.436C334.733,165.379 309.911,186.611 278.221,195.406C275.696,196.106 273.135,196.746 270.531,197.28C226.241,206.394 185.261,188.965 170.689,161.937C166.323,153.84 165.513,145.501 167.595,137.594C177.429,155.574 198.228,169.128 222.845,175.75C222.097,159.504 221.871,144.235 222.22,129.344C211.216,124.466 199.84,120.796 188.25,118.469C177.07,116.223 166.206,115.055 156.156,115.405C84.399,117.901 23.196,180.29 24.376,270.093C25.73,373.264 101.85,472.424 190,490.124C201.178,492.37 214.934,493.544 227.22,492.406C239.503,491.268 249.995,487.644 255.625,482.25L261.595,476.53L268,481.78C273.378,486.206 284.542,489.83 297.125,491C309.708,492.17 323.639,491.195 334.469,488.812C422.002,469.555 487.516,369.732 486.155,266.094C485.478,214.479 466.801,172.488 437.935,145.874C416.288,125.914 388.981,114.366 358.187,113.906C356.903,113.886 355.607,113.886 354.312,113.906L354.313,113.906ZM404.219,155.031C457.909,187.509 479.576,270.261 441.311,355.657C410.831,423.674 348.131,476.913 300.468,474.407C411.304,407.96 458.192,271.063 404.22,155.03L404.219,155.031Z" style="fill:rgb(196,44,44);fill-rule:nonzero;"/>
        <path d="M255.563,19.75C263.71,20.168 273.622,21.645 282.53,24.938C292.878,28.762 301.483,34.584 306.343,43.718C279.029,88.1 263.779,127.102 260.469,176.718L241.656,176.688C238.938,120.436 242.253,77.572 255.563,19.75Z" style="fill:rgb(167,122,106);"/>
    </g>
</svg>
